X: 161
T: Miss Allie Anderson
C:Susan Inglis
R:jig
B:RSCDS Leaflet 16
Z:1997 by John Chambers <jc:trillian.mit.edu>
N:"Coltbridge"
M:6/8
L:1/8
K:D
   A \
| "D"f2f d2d | "G"Bcd "D"A2A | "D"f2f "Bm"def | "Em"g>fg "A7"ecA \
| "D"f2f d2d | "G"Bcd "D"A2A | "G"Bcd "D"Adf | "A7"[e3G3] "D"[d2F2] :|
|: c/d/ \
| "A7"e3 c2A | "D"FAd fdA | "G"GBd "D"Adf | "E7"faf "A7"efg \
| "D"a3 f2d | "G"Bcd "D"A3 | "G"Bcd "D"Aaf | "A7"[e3G3] "D"[d2F2] :|

%%sep 2 1 500
%%sep 1 1 500

